vendor/shopware/storefront/Resources/app/storefront/dist/assets/icon/default/help.svg

<svg xmlns="http://www.w3.org/2000/svg" width="24" height="24" viewBox="0 0 24 24">
  <path fill="#758CA3" fill-rule="evenodd" d="M24,12 C24,18.627417 18.627417,24 12,24 C5.372583,24 6.14069502e-15,18.627417 5.32907052e-15,12 C-8.11624501e-16,5.372583 5.372583,6.54650759e-15 12,5.32907052e-15 C18.627417,2.33527661e-15 24,5.372583 24,12 Z M12,2 C6.4771525,2 2,6.4771525 2,12 C2,17.5228475 6.4771525,22 12,22 C17.5228475,22 22,17.5228475 22,12 C22,6.4771525 17.5228475,2 12,2 Z M12,15 C12.5522847,15 13,15.4477153 13,16 C13,16.5522847 12.5522847,17 12,17 C11.4477153,17 11,16.5522847 11,16 C11,15.4477153 11.4477153,15 12,15 Z M11,10 C11,10.5522847 10.5522847,11 10,11 C9.44771525,11 9,10.5522847 9,10 C9,8.11438192 10.1143819,7 12,7 C13.8856181,7 15,8.11438192 15,10 C15,11.1816627 14.5659105,11.7712772 13.641259,12.3495834 C13.5850156,12.3846976 13.5850156,12.3846976 13.5335394,12.4170185 C13.0870541,12.6986743 13,12.8323753 13,13.5 C13,14.0522847 12.5522847,14.5 12,14.5 C11.4477153,14.5 11,14.0522847 11,13.5 C11,12.0838591 11.4787857,11.3485219 12.4664606,10.7254681 C12.5261852,10.6879678 12.5261852,10.6879678 12.5807351,10.6539157 C12.9783579,10.4052299 13,10.3758339 13,10 C13,9.21895142 12.7810486,9 12,9 C11.2189514,9 11,9.21895142 11,10 Z"/>
</svg>

<svg xmlns="http://www.w3.org/2000/svg" width="24" height="24" viewBox="0 0 24 24"><path fill="#758CA3" fill-rule="evenodd" d="M24 12c0 6.6274-5.3726 12-12 12S0 18.6274 0 12 5.3726 0 12 0s12 5.3726 12 12zM12 2C6.4772 2 2 6.4772 2 12s4.4772 10 10 10 10-4.4772 10-10S17.5228 2 12 2zm0 13c.5523 0 1 .4477 1 1s-.4477 1-1 1-1-.4477-1-1 .4477-1 1-1zm-1-5c0 .5523-.4477 1-1 1s-1-.4477-1-1c0-1.8856 1.1144-3 3-3s3 1.1144 3 3c0 1.1817-.434 1.7713-1.3587 2.3496l-.1078.0674c-.4464.2817-.5335.4154-.5335 1.083 0 .5523-.4477 1-1 1s-1-.4477-1-1c0-1.4161.4788-2.1515 1.4665-2.7745l.1142-.0716C12.9784 10.4052 13 10.376 13 10c0-.781-.219-1-1-1s-1 .219-1 1z"/></svg>
